Obsidian-SemiLight/actions/22s/run-build-clean.svg

<svg viewBox="0 0 22 22" xmlns="http://www.w3.org/2000/svg"><path d="m11 3c-.675205.003785-1.3472143.0930363-2 .265625v1.0332031.0117188a7 7 0 0 0 -1.3164062.5449219l-.0078126-.0078126-.7324218-.7324218c-1.1669557.68805-2.1400752 1.6611695-2.828125 2.828125l.5214844.5214844.21875.21875a7 7 0 0 0 -.546875 1.3164062h-.0136719-1.0351563c-.1706116.6530391-.2578936 1.325045-.2597656 2 .00378.675205.093036 1.347214.265625 2h1.0332031.0117188a7 7 0 0 0 .5449219 1.316406l-.21875.21875-.5214844.521485c.6880498 1.166955 1.6611693 2.140075 2.828125 2.828125l.5214844-.521485.21875-.21875a7 7 0 0 0 1.3164062.546875v.308594.740234c.6530391.170612 1.325044.257894 2 .259766.334998-.001885.668533-.02662 1-.070312v-1.00586c-.330445.04881-.665094.075044-1 .076172-.335454-.000502-.668936-.025871-1-.074219v-.003906-.921875-.089844a6 6 0 0 1 -2.4726562-1.023437l-.0625.0625-.6503907.65039-.0039062.003907c-.5363085-.402062-1.011434-.878676-1.4121094-1.416016l.0019531-.001953.6503906-.650391.0644532-.064453a6 6 0 0 1 -1.0292969-2.470703h-.0859375-.9199219-.0039062c-.0488097-.330445-.0750443-.665094-.0761719-1 .0005022-.335454.0258707-.668936.0742188-1h.0039062.921875.0898438a6 6 0 0 1 1.0234374-2.4726562l-.0625-.0625-.6503906-.6503907-.0039062-.0039062c.4020618-.5363085.878676-1.011434 1.4160156-1.4121094l.0019531.0019531.6503907.6503906.0644531.0644532a6 6 0 0 1 2.4707031-1.0292969v-.0859375-.9199219-.0039062c.330445-.0488097.665094-.0750443 1-.0761719.335454.0005001.668936.0258701 1 .0742188v.0039062.921875.0898438a6 6 0 0 1 2.472656 1.0234374l.0625-.0625.650391-.6503906.003906-.0039062c.536309.4020618 1.011435.878676 1.412109 1.4160156l-.001953.0019531-.65039.6503907-.064453.0644531a6 6 0 0 1 1.029296 2.4707031h.085938.919922.003906c.04881.330445.075045.665094.076172 1-.000495.335454-.025869.668936-.074219 1h-.003906-.921875-.089844a6 6 0 0 1 -.730468 2h1.134765a7 7 0 0 0 .376953-1h.308594.740234c.170612-.653039.257894-1.325044.259766-2-.003785-.675205-.093036-1.3472143-.265625-2h-.734375-.310547a7 7 0 0 0 -.544922-1.3164062l.007813-.0078126.732422-.7324218c-.68805-1.1669555-1.661169-2.140075-2.828125-2.828125l-.728516.7285156-.011719.0117188a7 7 0 0 0 -1.316406-.546875v-.0136719-1.0351563c-.653039-.1706115-1.325044-.2578935-2-.2597656zm-2 5v6l5-3zm6 7-2 2 2 2h4v-4zm.599609 1h2.400391v2h-2.400391l-1-1z" fill="#4d4d4d"/></svg>

<svg xmlns="http://www.w3.org/2000/svg" viewBox="0 0 22 22">
  <defs id="defs3051">
    <style type="text/css" id="current-color-scheme">
      .ColorScheme-Text {
        color:#4d4d4d;
      }
      </style>
  </defs>
 <path 
     style="fill:currentColor;fill-opacity:1;stroke:none" 
     d="M 11 3 C 10.324795 3.003785 9.6527857 3.0930363 9 3.265625 L 9 4.2988281 L 9 4.3105469 A 7 7 0 0 0 7.6835938 4.8554688 L 7.6757812 4.8476562 L 6.9433594 4.1152344 C 5.7764037 4.8032844 4.8032842 5.7764039 4.1152344 6.9433594 L 4.6367188 7.4648438 L 4.8554688 7.6835938 A 7 7 0 0 0 4.3085938 9 L 4.2949219 9 L 3.2597656 9 C 3.089154 9.6530391 3.001872 10.325045 3 11 C 3.00378 11.675205 3.093036 12.347214 3.265625 13 L 4.2988281 13 L 4.3105469 13 A 7 7 0 0 0 4.8554688 14.316406 L 4.6367188 14.535156 L 4.1152344 15.056641 C 4.8032842 16.223596 5.7764037 17.196716 6.9433594 17.884766 L 7.4648438 17.363281 L 7.6835938 17.144531 A 7 7 0 0 0 9 17.691406 L 9 18 L 9 18.740234 C 9.6530391 18.910846 10.325044 18.998128 11 19 C 11.334998 18.998115 11.668533 18.97338 12 18.929688 L 12 17.923828 C 11.669555 17.972638 11.334906 17.998872 11 18 C 10.664546 17.999498 10.331064 17.974129 10 17.925781 L 10 17.921875 L 10 17 L 10 16.910156 A 6 6 0 0 1 7.5273438 15.886719 L 7.4648438 15.949219 L 6.8144531 16.599609 L 6.8105469 16.603516 C 6.2742384 16.201454 5.7991129 15.72484 5.3984375 15.1875 L 5.4003906 15.185547 L 6.0507812 14.535156 L 6.1152344 14.470703 A 6 6 0 0 1 5.0859375 12 L 5 12 L 4.0800781 12 L 4.0761719 12 C 4.0273622 11.669555 4.0011276 11.334906 4 11 C 4.0005022 10.664546 4.0258707 10.331064 4.0742188 10 L 4.078125 10 L 5 10 L 5.0898438 10 A 6 6 0 0 1 6.1132812 7.5273438 L 6.0507812 7.4648438 L 5.4003906 6.8144531 L 5.3964844 6.8105469 C 5.7985462 6.2742384 6.2751604 5.7991129 6.8125 5.3984375 L 6.8144531 5.4003906 L 7.4648438 6.0507812 L 7.5292969 6.1152344 A 6 6 0 0 1 10 5.0859375 L 10 5 L 10 4.0800781 L 10 4.0761719 C 10.330445 4.0273622 10.665094 4.0011276 11 4 C 11.335454 4.0005001 11.668936 4.0258701 12 4.0742188 L 12 4.078125 L 12 5 L 12 5.0898438 A 6 6 0 0 1 14.472656 6.1132812 L 14.535156 6.0507812 L 15.185547 5.4003906 L 15.189453 5.3964844 C 15.725762 5.7985462 16.200888 6.2751604 16.601562 6.8125 L 16.599609 6.8144531 L 15.949219 7.4648438 L 15.884766 7.5292969 A 6 6 0 0 1 16.914062 10 L 17 10 L 17.919922 10 L 17.923828 10 C 17.972638 10.330445 17.998873 10.665094 18 11 C 17.999505 11.335454 17.974131 11.668936 17.925781 12 L 17.921875 12 L 17 12 L 16.910156 12 A 6 6 0 0 1 16.179688 14 L 17.314453 14 A 7 7 0 0 0 17.691406 13 L 18 13 L 18.740234 13 C 18.910846 12.346961 18.998128 11.674956 19 11 C 18.996215 10.324795 18.906964 9.6527857 18.734375 9 L 18 9 L 17.689453 9 A 7 7 0 0 0 17.144531 7.6835938 L 17.152344 7.6757812 L 17.884766 6.9433594 C 17.196716 5.7764039 16.223597 4.8032844 15.056641 4.1152344 L 14.328125 4.84375 L 14.316406 4.8554688 A 7 7 0 0 0 13 4.3085938 L 13 4.2949219 L 13 3.2597656 C 12.346961 3.0891541 11.674956 3.0018721 11 3 z M 9 8 L 9 14 L 14 11 L 9 8 z M 15 15 L 13 17 L 15 19 L 19 19 L 19 15 L 15 15 z M 15.599609 16 L 18 16 L 18 18 L 15.599609 18 L 14.599609 17 L 15.599609 16 z "
	 class="ColorScheme-Text"
     />
</svg>
